flutter/assets/asset_swap_arrows.svg

<svg width="20" height="20" version="1.1" viewBox="0 0 5.2917 5.2916" xml:space="preserve" xmlns="http://www.w3.org/2000/svg"><g transform="translate(-89.084 -109.81)"><g transform="matrix(.26458 0 0 .26458 88.026 108.75)" fill="none"><path d="m22 14c0 0.5523 0.4477 1 1 1s1-0.4477 1-1v-8.5c0-0.82843-0.6716-1.5-1.5-1.5h-8.5c-0.5523 0-1 0.44771-1 1s0.4477 1 1 1h6.5858l-14.586 14.586v-6.5859c0-0.5523-0.44772-1-1-1s-1 0.4477-1 1v8.5c0 0.8284 0.67157 1.5 1.5 1.5h8.5c0.5523 0 1-0.4477 1-1s-0.4477-1-1-1h-6.5856l14.586-14.586z" clip-rule="evenodd" fill="#004160" fill-rule="evenodd"/></g></g></svg>

<svg width="28" height="28" viewBox="0 0 28 28" fill="none" xmlns="http://www.w3.org/2000/svg">
<path fill-rule="evenodd" clip-rule="evenodd" d="M22 14C22 14.5523 22.4477 15 23 15C23.5523 15 24 14.5523 24 14V5.5C24 4.67157 23.3284 4 22.5 4H14C13.4477 4 13 4.44771 13 5C13 5.55229 13.4477 6 14 6L20.5858 6L6 20.5858L6 13.9999C6 13.4476 5.55228 12.9999 5 12.9999C4.44772 12.9999 4 13.4476 4 13.9999V22.4999C4 23.3283 4.67157 23.9999 5.5 23.9999H14C14.5523 23.9999 15 23.5522 15 22.9999C15 22.4476 14.5523 21.9999 14 21.9999H7.41437L22 7.41426V14Z" fill="#004160"/>
</svg>
